X:53
T:Jaj de széles, jaj de nagyon széles a gyergyói utca
M:4/4
L:1/4
K:F
DDGF | E/D/E/F/ A d | cAAG | D2 D z |
DDGF | E/D/E/F/ A d | cAAG | D2 D z |
dc=B=c | d/d/A/A/ G A | dAGF | G2 A z |
DDGF | E/D/E/F/ A d | cdAG | D2 D z |

